Gurmukhi/0A3F.svg

<svg enable-background="new 0 0 336 592" viewBox="0 0 336 592" xmlns="http://www.w3.org/2000/svg"><path d="m146.277344 111.456223c23.482086 8.626564 36.400436 26.542541 44.791534 48.498046 2.549057 6.669678 4.611466 13.533249 5.647461 20.661698.362366 2.493439 1.530197 5.426712-1.925613 6.172455-3.265961.704773-7.095475 1.550109-9.02266-2.875061-2.590835-5.949082-5.003891-11.996201-7.964416-17.759201-5.455521-10.619919-12.380585-20.109147-22.473816-26.919465-16.018204-10.808151-41.768471-8.533248-53.877075 6.151154-9.324173 11.307663-10.299927 24.404175-6.446465 37.742142 4.5588 15.779388 2.590576 12.337051 16.59224 12.678131 5.828125.141998 11.665367.115066 17.493522-.031571 3.246018-.08168 5.33226.893341 6.362397 4.2305 1.125915 3.647369 2.778289 7.128708 4.081222 10.72586 1.571747 4.339279.272766 6.319824-4.403839 6.38324-8.995949.121994-18.000839.26152-26.989266-.017456-4.626068-.143601-5.898338 1.471771-5.885902 6.031784.14492 53.15152.092148 106.303619.091156 159.455566-.00003 1.499573.046043 3.001404-.018692 4.498291-.203484 4.705323-1.758087 5.720337-5.946007 3.711243-4.95533-2.377197-9.740539-5.133942-14.785415-7.291473-3.835518-1.64032-4.872368-4.134461-4.862435-8.145813.124176-50.152497.088738-100.305359.089127-150.458115.000061-7.704742-.011818-7.707825-7.552872-7.716965-6.498184-.007888-12.998749-.11322-19.493568.03302-3.293682.074158-5.336079-1.07904-6.382855-4.293106-1.132026-3.475799-2.660732-6.821273-3.82748-10.287185-1.738949-5.16565-.614994-6.784821 4.760128-6.827835 8.996925-.072022 17.994942.000518 26.992207-.045441 1.798851-.009186 3.663269.376877 5.453262-.520416.766388-2.123337-.503212-3.820298-1.178581-5.6353-7.332405-19.70546-8.090004-39.143005 3.819641-57.388382 9.632423-14.756699 23.880119-22.193741 41.377487-23.561699 8.542061-.667824 16.91938.07151 25.485573 2.801354z"/><path d="m283.423615 326.229156c-3.490784 3.012055-7.000702 4.025269-10.74466 1.545563-3.183014-2.108063-4.653412-5.195831-3.77301-9.028961.822082-3.579315 3.200165-5.757996 6.805542-6.432526 3.428039-.641449 6.310547.540589 8.230621 3.383698 2.275208 3.368896 1.973297 6.870361-.518493 10.532226z"/><path d="m150.9104 328.447693c-4.686218-2.684601-6.419189-6.384552-4.569931-11.103607 1.492875-3.809632 4.733673-5.545685 8.797181-5.107056 5.032592.543274 7.988098 4.879211 7.134536 10.079987-.806747 4.915466-5.057663 7.344207-11.361786 6.130676z"/><path d="m140.421951 296.622559c-.129394-4.403565 1.325562-7.486542 5.286942-9.041504 3.065689-1.203369 5.948517-.87265 8.376266 1.339782 2.793656 2.545899 4.034928 5.624451 2.501374 9.418427-1.480469 3.662598-4.293442 5.683838-8.079895 5.53186-4.214356-.169098-7.130722-2.501648-8.084687-7.248565z"/><path d="m221.649353 356.367676c2.700409 3.305237 3.226288 6.551697 1.336853 10.027527-2.05246 3.775787-6.789658 5.365661-10.772827 3.666076-4.132507-1.763305-6.048294-6.47232-4.410721-10.84143 1.512665-4.035828 6.021286-6.366028 10.133118-5.071442 1.228317.386719 2.298233 1.27655 3.713577 2.219269z"/><path d="m289.846832 299.583313c-2.918121 3.96521-6.430481 5.358398-10.695587 3.533478-3.559845-1.523163-5.428375-4.519257-5.100738-8.371338.347595-4.086273 2.845703-6.648071 6.856842-7.596344 3.028747-.715973 5.651916.243256 7.71051 2.441467 2.651886 2.831696 3.245514 6.098114 1.228973 9.992737z"/><path d="m197.079636 239.008057c-3.421219 3.511184-7.085266 4.508255-11.031357 2.021438-3.160919-1.992019-4.957352-4.914551-3.933121-8.887512 1.34903-5.232864 6.110458-7.807159 11.212021-6.107666 5.107925 1.701645 6.669891 6.659119 3.752457 12.97374z"/><path d="m174.517334 253.594971c-4.893326 3.473877-8.899231 3.605041-11.972458.67128-3.409256-3.254578-3.765564-8.172989-.845962-11.677903 2.701797-3.243438 7.735153-3.96112 11.271637-1.607132 3.888137 2.588089 4.554489 7.117981 1.546783 12.613755z"/><path d="m182.308472 359.294098c-.504959-6.07721 1.80809-9.769531 6.22496-10.54718 4.588989-.807953 8.421463 1.33786 9.890564 5.53775 1.334381 3.814758-.432236 8.092804-4.166534 10.089661-4.476456 2.393646-8.471085.800506-11.94899-5.080231z"/><path d="m247.918991 229.34108c2.389633 4.444366 1.620957 8.166549-1.797638 11.049209-2.904739 2.449387-6.413376 2.744034-9.729751.695511-3.544144-2.189178-4.501481-5.608307-3.59314-9.513931.690964-2.970825 2.651321-5.063416 5.625671-5.694855 3.59224-.762619 6.960877-.22493 9.494858 3.464066z"/><path d="m159.876099 344.563202c.169143-7.30249 3.581237-10.672516 9.602386-9.960999 4.889404.57779 7.889832 4.994294 6.814575 10.186402-.760269 3.671142-3.267196 5.798553-6.805572 6.341797-4.838028.742858-7.828446-1.829956-9.611389-6.5672z"/><path d="m239.30455 348.719238c5.990387.179352 9.306137 2.455567 9.870423 6.772766.556274 4.255951-1.141465 7.621399-5.16095 9.212555-3.966751 1.570221-7.526627.522431-10.106156-3.023895-3.409133-4.686829-1.223159-10.304687 5.396683-12.961426z"/><path d="m210.781677 235.399963c-3.726242-3.254257-4.604645-6.880828-2.514877-10.952865 1.57869-3.076172 4.417236-4.632309 7.779098-4.424561 3.81395.235687 6.420289 2.500946 7.65152 6.157532 1.143875 3.397125-.005905 6.288986-2.522369 8.515732-3.035797 2.686294-6.48938 3.126053-10.393372.704162z"/><path d="m254.703674 343.800171c.51146-6.365906 2.978638-9.128479 7.882141-9.263733 4.686371-.129242 8.217774 2.725983 8.709839 7.042145.519287 4.554931-1.966705 8.32315-6.231292 9.445129-4.517395 1.188538-8.306885-1.305633-10.360688-7.223541z"/><path d="m162.280106 271.684021c-2.230362 5.679932-5.058396 7.618835-9.734116 6.703339-4.259018-.833954-6.642029-3.651795-6.79393-7.946839-.153748-4.346618 2.207458-7.199859 6.318756-8.396271 5.517471-1.605621 10.054794 2.549561 10.20929 9.639771z"/><path d="m274.778503 278.282776c-6.079284-3.392914-7.692749-8.099976-4.699401-12.694794 2.594024-3.981842 7.82788-5.025513 11.795898-2.345703 3.558105 2.402954 4.28479 6.001251 3.129791 9.665131-1.455688 4.617736-5.164215 6.164581-10.226288 5.375366z"/><path d="m257.648438 254.516113c-4.167954-5.484649-3.744141-10.662643.777404-13.586593 3.998474-2.585709 9.333435-1.506043 11.727539 2.599929 2.0289 3.479615 1.899048 7.082139-.929535 10.08165-3.311096 3.511185-7.210876 3.626541-11.575408.905014z"/></svg>

<svg version="1.1" id="Layer_1" xmlns="http://www.w3.org/2000/svg" xmlns:xlink="http://www.w3.org/1999/xlink" x="0px" y="0px"
	 width="100%" viewBox="0 0 336 592" enable-background="new 0 0 336 592" xml:space="preserve">
<path fill="#000000" opacity="1.000000" stroke="none" 
	d="
M146.277344,111.456223 
	C169.759430,120.082787 182.677780,137.998764 191.068878,159.954269 
	C193.617935,166.623947 195.680344,173.487518 196.716339,180.615967 
	C197.078705,183.109406 198.246536,186.042679 194.790726,186.788422 
	C191.524765,187.493195 187.695251,188.338531 185.768066,183.913361 
	C183.177231,177.964279 180.764175,171.917160 177.803650,166.154160 
	C172.348129,155.534241 165.423065,146.045013 155.329834,139.234695 
	C139.311630,128.426544 113.561363,130.701447 101.452759,145.385849 
	C92.128586,156.693512 91.152832,169.790024 95.006294,183.127991 
	C99.565094,198.907379 97.596870,195.465042 111.598534,195.806122 
	C117.426659,195.948120 123.263901,195.921188 129.092056,195.774551 
	C132.338074,195.692871 134.424316,196.667892 135.454453,200.005051 
	C136.580368,203.652420 138.232742,207.133759 139.535675,210.730911 
	C141.107422,215.070190 139.808441,217.050735 135.131836,217.114151 
	C126.135887,217.236145 117.130997,217.375671 108.142570,217.096695 
	C103.516502,216.953094 102.244232,218.568466 102.256668,223.128479 
	C102.401588,276.279999 102.348816,329.432098 102.347824,382.584045 
	C102.347794,384.083618 102.393867,385.585449 102.329132,387.082336 
	C102.125648,391.787659 100.571045,392.802673 96.383125,390.793579 
	C91.427795,388.416382 86.642586,385.659637 81.597710,383.502106 
	C77.762192,381.861786 76.725342,379.367645 76.735275,375.356293 
	C76.859451,325.203796 76.824013,275.050934 76.824402,224.898178 
	C76.824463,217.193436 76.812584,217.190353 69.271530,217.181213 
	C62.773346,217.173325 56.272781,217.067993 49.777962,217.214233 
	C46.484280,217.288391 44.441883,216.135193 43.395107,212.921127 
	C42.263081,209.445328 40.734375,206.099854 39.567627,202.633942 
	C37.828678,197.468292 38.952633,195.849121 44.327755,195.806107 
	C53.324680,195.734085 62.322697,195.806625 71.319962,195.760666 
	C73.118813,195.751480 74.983231,196.137543 76.773224,195.240250 
	C77.539612,193.116913 76.270012,191.419952 75.594643,189.604950 
	C68.262238,169.899490 67.504639,150.461945 79.414284,132.216568 
	C89.046707,117.459869 103.294403,110.022827 120.791771,108.654869 
	C129.333832,107.987045 137.711151,108.726379 146.277344,111.456223 
z"/>
<path fill="#000000" opacity="1.000000" stroke="none" 
	d="
M283.423615,326.229156 
	C279.932831,329.241211 276.422913,330.254425 272.678955,327.774719 
	C269.495941,325.666656 268.025543,322.578888 268.905945,318.745758 
	C269.728027,315.166443 272.106110,312.987762 275.711487,312.313232 
	C279.139526,311.671783 282.022034,312.853821 283.942108,315.696930 
	C286.217316,319.065826 285.915405,322.567291 283.423615,326.229156 
z"/>
<path fill="#000000" opacity="1.000000" stroke="none" 
	d="
M150.910400,328.447693 
	C146.224182,325.763092 144.491211,322.063141 146.340469,317.344086 
	C147.833344,313.534454 151.074142,311.798401 155.137650,312.237030 
	C160.170242,312.780304 163.125748,317.116241 162.272186,322.317017 
	C161.465439,327.232483 157.214523,329.661224 150.910400,328.447693 
z"/>
<path fill="#000000" opacity="1.000000" stroke="none" 
	d="
M140.421951,296.622559 
	C140.292557,292.218994 141.747513,289.136017 145.708893,287.581055 
	C148.774582,286.377686 151.657410,286.708405 154.085159,288.920837 
	C156.878815,291.466736 158.120087,294.545288 156.586533,298.339264 
	C155.106064,302.001862 152.293091,304.023102 148.506638,303.871124 
	C144.292282,303.702026 141.375916,301.369476 140.421951,296.622559 
z"/>
<path fill="#000000" opacity="1.000000" stroke="none" 
	d="
M221.649353,356.367676 
	C224.349762,359.672913 224.875641,362.919373 222.986206,366.395203 
	C220.933746,370.170990 216.196548,371.760864 212.213379,370.061279 
	C208.080872,368.297974 206.165085,363.588959 207.802658,359.219849 
	C209.315323,355.184021 213.823944,352.853821 217.935776,354.148407 
	C219.164093,354.535126 220.234009,355.424957 221.649353,356.367676 
z"/>
<path fill="#000000" opacity="1.000000" stroke="none" 
	d="
M289.846832,299.583313 
	C286.928711,303.548523 283.416351,304.941711 279.151245,303.116791 
	C275.591400,301.593628 273.722870,298.597534 274.050507,294.745453 
	C274.398102,290.659180 276.896210,288.097382 280.907349,287.149109 
	C283.936096,286.433136 286.559265,287.392365 288.617859,289.590576 
	C291.269745,292.422272 291.863373,295.688690 289.846832,299.583313 
z"/>
<path fill="#000000" opacity="1.000000" stroke="none" 
	d="
M197.079636,239.008057 
	C193.658417,242.519241 189.994370,243.516312 186.048279,241.029495 
	C182.887360,239.037476 181.090927,236.114944 182.115158,232.141983 
	C183.464188,226.909119 188.225616,224.334824 193.327179,226.034317 
	C198.435104,227.735962 199.997070,232.693436 197.079636,239.008057 
z"/>
<path fill="#000000" opacity="1.000000" stroke="none" 
	d="
M174.517334,253.594971 
	C169.624008,257.068848 165.618103,257.200012 162.544876,254.266251 
	C159.135620,251.011673 158.779312,246.093262 161.698914,242.588348 
	C164.400711,239.344910 169.434067,238.627228 172.970551,240.981216 
	C176.858688,243.569305 177.525040,248.099197 174.517334,253.594971 
z"/>
<path fill="#000000" opacity="1.000000" stroke="none" 
	d="
M182.308472,359.294098 
	C181.803513,353.216888 184.116562,349.524567 188.533432,348.746918 
	C193.122421,347.938965 196.954895,350.084778 198.423996,354.284668 
	C199.758377,358.099426 197.991760,362.377472 194.257462,364.374329 
	C189.781006,366.767975 185.786377,365.174835 182.308472,359.294098 
z"/>
<path fill="#000000" opacity="1.000000" stroke="none" 
	d="
M247.918991,229.341080 
	C250.308624,233.785446 249.539948,237.507629 246.121353,240.390289 
	C243.216614,242.839676 239.707977,243.134323 236.391602,241.085800 
	C232.847458,238.896622 231.890121,235.477493 232.798462,231.571869 
	C233.489426,228.601044 235.449783,226.508453 238.424133,225.877014 
	C242.016373,225.114395 245.385010,225.652084 247.918991,229.341080 
z"/>
<path fill="#000000" opacity="1.000000" stroke="none" 
	d="
M159.876099,344.563202 
	C160.045242,337.260712 163.457336,333.890686 169.478485,334.602203 
	C174.367889,335.179993 177.368317,339.596497 176.293060,344.788605 
	C175.532791,348.459747 173.025864,350.587158 169.487488,351.130402 
	C164.649460,351.873260 161.659042,349.300446 159.876099,344.563202 
z"/>
<path fill="#000000" opacity="1.000000" stroke="none" 
	d="
M239.304550,348.719238 
	C245.294937,348.898590 248.610687,351.174805 249.174973,355.492004 
	C249.731247,359.747955 248.033508,363.113403 244.014023,364.704559 
	C240.047272,366.274780 236.487396,365.226990 233.907867,361.680664 
	C230.498734,356.993835 232.684708,351.375977 239.304550,348.719238 
z"/>
<path fill="#000000" opacity="1.000000" stroke="none" 
	d="
M210.781677,235.399963 
	C207.055435,232.145706 206.177032,228.519135 208.266800,224.447098 
	C209.845490,221.370926 212.684036,219.814789 216.045898,220.022537 
	C219.859848,220.258224 222.466187,222.523483 223.697418,226.180069 
	C224.841293,229.577194 223.691513,232.469055 221.175049,234.695801 
	C218.139252,237.382095 214.685669,237.821854 210.781677,235.399963 
z"/>
<path fill="#000000" opacity="1.000000" stroke="none" 
	d="
M254.703674,343.800171 
	C255.215134,337.434265 257.682312,334.671692 262.585815,334.536438 
	C267.272186,334.407196 270.803589,337.262421 271.295654,341.578583 
	C271.814941,346.133514 269.328949,349.901733 265.064362,351.023712 
	C260.546967,352.212250 256.757477,349.718079 254.703674,343.800171 
z"/>
<path fill="#000000" opacity="1.000000" stroke="none" 
	d="
M162.280106,271.684021 
	C160.049744,277.363953 157.221710,279.302856 152.545990,278.387360 
	C148.286972,277.553406 145.903961,274.735565 145.752060,270.440521 
	C145.598312,266.093903 147.959518,263.240662 152.070816,262.044250 
	C157.588287,260.438629 162.125610,264.593811 162.280106,271.684021 
z"/>
<path fill="#000000" opacity="1.000000" stroke="none" 
	d="
M274.778503,278.282776 
	C268.699219,274.889862 267.085754,270.182800 270.079102,265.587982 
	C272.673126,261.606140 277.906982,260.562469 281.875000,263.242279 
	C285.433105,265.645233 286.159790,269.243530 285.004791,272.907410 
	C283.549103,277.525146 279.840576,279.071991 274.778503,278.282776 
z"/>
<path fill="#000000" opacity="1.000000" stroke="none" 
	d="
M257.648438,254.516113 
	C253.480484,249.031464 253.904297,243.853470 258.425842,240.929520 
	C262.424316,238.343811 267.759277,239.423477 270.153381,243.529449 
	C272.182281,247.009064 272.052429,250.611588 269.223846,253.611099 
	C265.912750,257.122284 262.012970,257.237640 257.648438,254.516113 
z"/>
</svg>
